X: 38111
T: Spórt
R: jig
M: 6/8
K: Dmajor
|:"D"AdF A3|"Em/G"GBE GFG|"D"AdF A3|"Em/G"GBE "A"cde|
"D"AdF A3|"Em/G"GBE GFG|"A"cde A2G|"A"EAA "D"[1D3||2 D2d:|
|:"A"c3 d3|"A"cec A2g|"D"fed "G"ged|"A"cec A2e|
"D"f3 g3|"D"age d2e|"D"fdF A2F|"Em/G"GEA D3:|
|:"A5"AGG AGE|"A5"AGE EDD|"A"AGE cde|"D"dcA "G"G3|
"A5"AGG AGE|"A5"AGE EDD|"A"cec A2G|EAA "D"D3:|

